docs/assets/img/logo.svg

<svg xmlns="http://www.w3.org/2000/svg" style="isolation:isolate" width="1024" height="1024"><defs><clipPath id="a"><path d="M0 0h1024v1024H0z"/></clipPath></defs><g clip-path="url(#a)"><path d="M180 0h664c99.345 0 180 80.655 180 180v664c0 99.345-80.655 180-180 180H180C80.655 1024 0 943.345 0 844V180C0 80.655 80.655 0 180 0z" fill="#3d5afe"/><path d="M303 340.4v-81.6h416v81.6H558.2V778h-94.4V340.4H303z" fill="#FFF"/></g></svg>

<?xml version="1.0" standalone="no"?><!-- Generator: Gravit.io --><svg xmlns="http://www.w3.org/2000/svg" xmlns:xlink="http://www.w3.org/1999/xlink" style="isolation:isolate" viewBox="0 0 1024 1024" width="1024" height="1024"><defs><clipPath id="_clipPath_JJe4GXhtHF2h6NIMPD0kupK9zgktSqh1"><rect width="1024" height="1024"/></clipPath></defs><g clip-path="url(#_clipPath_JJe4GXhtHF2h6NIMPD0kupK9zgktSqh1)"><g id="Group"><path d="M 180 0 L 844 0 C 943.345 0 1024 80.655 1024 180 L 1024 844 C 1024 943.345 943.345 1024 844 1024 L 180 1024 C 80.655 1024 0 943.345 0 844 L 0 180 C 0 80.655 80.655 0 180 0 Z" style="stroke:none;fill:#3D5AFE;stroke-miterlimit:10;"/><path d=" M 303 340.4 L 303 258.8 L 719 258.8 L 719 340.4 L 558.2 340.4 L 558.2 778 L 463.8 778 L 463.8 340.4 L 303 340.4 Z " fill="rgb(255,255,255)"/></g></g></svg>
